X:27
T: Ritter und Magd
N: Q0055Z
O: Mitteleuropa, Deutschland (BRD) , Nord - Bayern, Franken
N: Dritte Zeile = Refrain auf sinnfreie Silben.
R: Ballade, Betrug, Schwangerschaft, Tod, Selbstmord, Herr und Magd
M: 6/8
L: 1/16
K: F
FGA4A2 | F2F2G2A4A2 | F4
G2A4A2 | B2A2G2G4A2 | F4
FGA4AA | F4FGA4A2 | F4
FGA4A2 | B3AG2G4A2 | F4

@@@ Tune index: 903
